components/icon/svg/24/ticket_bahncard.svg

<?xml version="1.0" encoding="UTF-8"?>
<svg width="24px" height="24px" viewBox="0 0 24 24" version="1.1" xmlns="http://www.w3.org/2000/svg" xmlns:xlink="http://www.w3.org/1999/xlink">
    <!-- Generator: Sketch 64 (93537) - https://sketch.com -->
    <title>ic-db_ticket_bahncard_24</title>
    <desc>Created with Sketch.</desc>
    <g id="Symbols:Icon" stroke="none" stroke-width="1" fill="none" fill-rule="evenodd">
        <g id="24dp-Icon/Ticket/BahnCard" fill="#282D37">
            <path d="M18.99531,5 C20.6385,5 22,6.33218018 22,8 L22,16 C22,17.6678198 20.6385,19 18.99531,19 L5.004695,19 C3.361502,19 2,17.6678198 2,16 L2,8 C2,6.33218018 3.361502,5 5.004695,5 L18.99531,5 Z M18.9865167,6.9966406 L5.00410328,6.9966406 C4.44105354,6.9966406 3.995305,7.4426406 3.995305,8.0060406 L3.995305,15.9872406 C3.995305,16.5506406 4.44105354,16.9966406 5.00410328,16.9966406 L18.9865167,16.9966406 C19.5495665,16.9966406 19.995305,16.5506406 19.995305,15.9872406 L19.995305,8.0060406 C19.995305,7.4426406 19.5495665,6.9966406 18.9865167,6.9966406 Z M15.96714,8.21816077 C16.34272,8.21816077 16.78873,8.26509228 17.18779,8.33553958 C17.51643,8.40608694 17.77465,8.73490772 17.77465,9.08724429 L17.77465,9.11076008 C17.77465,9.58057553 17.32864,9.9329121 16.88263,9.83894901 C16.62441,9.79191743 16.34272,9.76850171 16.03756,9.76850171 C14.62911,9.76850171 14.23005,10.5436221 14.23005,12.0235158 C14.23005,13.4328621 14.60563,14.2314983 16.01408,14.2314983 C16.31925,14.2314983 16.60094,14.2080826 16.9061,14.1376353 C17.37559,14.0436722 17.79812,14.372493 17.79812,14.8423084 L17.79812,14.8892399 C17.79812,15.2181608 17.58685,15.50005 17.28169,15.5939131 C16.85915,15.7113919 16.41315,15.7818392 15.92019,15.7818392 C13.5493,15.7818392 12.37559,14.4429403 12.37559,12.0469315 C12.37559,9.62750704 13.61972,8.21816077 15.96714,8.21816077 Z M8.666667,8.38257115 C10.122066,8.38257115 11.107981,8.89931811 11.107981,10.2382171 C11.107981,11.0838849 10.732394,11.483253 9.910798,11.788558 C10.967136,12 11.507042,12.516747 11.507042,13.5738567 C11.507042,15.0302346 10.380282,15.6409446 8.619718,15.6409446 L6.577465,15.6409446 C6.178404,15.6409446 5.826291,15.3121239 5.826291,14.8892399 L5.826291,9.13427587 C5.826291,8.71139193 6.178404,8.38257115 6.577465,8.38257115 L8.666667,8.38257115 Z M8.643192,12.5872943 L7.586854,12.5872943 L7.586854,14.1376353 L8.525822,14.1376353 C9.323944,14.1376353 9.746479,13.9497091 9.746479,13.338899 C9.746479,12.8456678 9.464789,12.5872943 8.643192,12.5872943 Z M8.57277,9.88588052 L7.586854,9.88588052 L7.586854,11.0603691 L8.525822,11.0603691 C9.112676,11.0603691 9.394366,10.8724429 9.394366,10.4496591 C9.394366,10.0502909 9.13615,9.88588052 8.57277,9.88588052 Z" id="🎨-Color"></path>
        </g>
    </g>
</svg>

<svg width="24" height="24" xmlns="http://www.w3.org/2000/svg"><path d="M18.995 5A3.006 3.006 0 0122 8v8c0 1.668-1.361 3-3.005 3H5.005A3.006 3.006 0 012 16V8c0-1.668 1.362-3 3.005-3h13.99zm-.008 1.997H5.004c-.563 0-1.009.446-1.009 1.009v7.981c0 .564.446 1.01 1.01 1.01h13.982c.563 0 1.008-.446 1.008-1.01V8.006c0-.563-.445-1.01-1.008-1.01zm-3.02 1.221c.376 0 .822.047 1.22.118.33.07.588.399.588.751v.024a.75.75 0 01-.892.728 4.724 4.724 0 00-.845-.07c-1.409 0-1.808.775-1.808 2.255 0 1.409.376 2.207 1.784 2.207.305 0 .587-.023.892-.093.47-.094.892.234.892.704v.047c0 .33-.211.611-.516.705a5.017 5.017 0 01-1.362.188c-2.37 0-3.544-1.34-3.544-3.735 0-2.42 1.244-3.829 3.591-3.829zm-7.3.165c1.455 0 2.441.516 2.441 1.855 0 .846-.376 1.245-1.197 1.55 1.056.212 1.596.729 1.596 1.786 0 1.456-1.127 2.067-2.887 2.067H6.577a.757.757 0 01-.75-.752V9.134c0-.423.351-.751.75-.751h2.09zm-.024 4.204H7.587v1.55h.939c.798 0 1.22-.187 1.22-.798 0-.493-.281-.752-1.103-.752zm-.07-2.701h-.986v1.174h.939c.587 0 .868-.188.868-.61 0-.4-.258-.564-.821-.564z" fill="#282D37" fill-rule="evenodd"/></svg>
